korla-light/actions/symbolic/document-print-symbolic.svg

<svg style="clip-rule:evenodd;fill-rule:evenodd;stroke-linejoin:round;stroke-miterlimit:2" version="1.1" viewBox="0 0 16 16" xmlns="http://www.w3.org/2000/svg">
 <path d="m2 4c-0.5 0-1 0.5-1 1v4c0 0.5 0.5 1 1 1h1v-2h10v2h1c0.5 0 1-0.5 1-1v-4c0-0.5-0.5-1-1-1h-12z" style="fill-rule:nonzero;fill:rgb(68,68,68)"/>
 <rect x="4" y="1" width="8" height="2" style="fill-opacity:.3;fill-rule:nonzero;fill:rgb(68,68,68)"/>
 <rect x="4" y="9" width="8" height="5" style="fill-opacity:.5;fill-rule:nonzero;fill:rgb(68,68,68)"/>
</svg>

<svg xmlns="http://www.w3.org/2000/svg" width="16" height="16" version="1.1">
 <path style="fill:#444444" d="M 2,4 C 1.5,4 1,4.5 1,5 V 9 C 1,9.5 1.5,10 2,10 H 3 V 8 H 13 V 10 H 14 C 14.5,10 15,9.5 15,9 V 5 C 15,4.5 14.5,4 14,4 Z"/>
 <path style="fill:#444444" d="M 4,1 V 3 H 12 V 1 Z"/>
 <path style="fill:#444444" d="M 4,9 V 14 H 12 V 9 Z"/>
</svg>
